X: 30090
T: Oigfhear A Chuil Duinn
R: strathspey
M: 4/4
K: Gminor
d>BGB {B}g3z|G>Bd>B {A}cA {F}G2|f>ed>f {a}g>dTc>B|c>df>d g>{fg}d Tc2|
d>BG>B {B}g3z|G>Bd>B {d}TcA {^F}G2||GGB>B {AB}c>BA<c|G<GB>d f>ed<f|
Tg>ab>g f>dTcB|c>dfd g>dc{d}e|d>BGB {G}g3z|TG>Bd>B {AB}cA {^F}G2|
Tf>ed>f {a}g>dc>B|Tc>dfd Tg>{fg}d c2|d>BGB {G}g3z|TG>Bd>B {d}Tc>A {^F}G2||

